X:80
T:Happy Holiday 
R:
C:Bruce Osborne - Dec. 2002
Z:abc by bosborne@kos.net
M:3/4
L:1/8
K:C
ga|g2 e2 cd|c2 G2 ED|CG, CE AE|G3 E FE|\
D2 DC DE|F2 FE FG|Bc BA GF|E4 ga|\
g2 e2 cd|c2 G2 ED|CG, CE AE|G3 E FE|\
D2 DC DE|F2 FE FG|Bc BA GB|c4||\
ga|g2 e2 ga|g2 e2 cA|GE CE Gc|B4 de|\
f2 fe dc|B2 Bc BA|G^F GB dg|e4 ga|\
g2 e2 ga|g2 e2 cA|GE CE Gc|B4 de|\
f2 fe dc|B2 Bc BA|G^F GA Bd|c4||
